packages/landing/src/assets/dev-assets/icons/page_pointer.svg

<?xml version="1.0" encoding="UTF-8" standalone="no"?>
<svg
   width="100%"
   height="100%"
   viewBox="0 0 48 48"
   fill="none"
   preserveAspectRatio="xMidYMid meet"
   aria-hidden="true"
   role="img"
   version="1.1"
   id="svg11"
   xmlns:xlink="http://www.w3.org/1999/xlink"
   xmlns="http://www.w3.org/2000/svg"
   xmlns:svg="http://www.w3.org/2000/svg">
  <defs
     id="defs11">
    <linearGradient
       id="linearGradient11">
      <stop
         style="stop-color:#fc0a31;stop-opacity:1;"
         offset="0"
         id="stop11" />
      <stop
         style="stop-color:#fc8c0f;stop-opacity:1;"
         offset="1"
         id="stop12" />
    </linearGradient>
    <linearGradient
       xlink:href="#linearGradient11"
       id="linearGradient12"
       x1="12.093454"
       y1="20.577938"
       x2="37.21244"
       y2="20.577938"
       gradientUnits="userSpaceOnUse" />
  </defs>
  <path
     d="M4.87719 39.2987L11.4405 32.0679C11.6679 31.8173 11.9906 31.6744 12.329 31.6744L36.0381 31.6745C36.3892 31.6745 36.7227 31.8282 36.9507 32.0952L43.1078 39.3056C43.2741 39.5003 43.1357 39.8004 42.8797 39.8004H5.09933C4.839 39.8004 4.70222 39.4915 4.87719 39.2987Z"
     fill="white"
     stroke="black"
     stroke-width="1.2"
     id="path1" />
  <path
     d="M4.5647 38.1424L11.2466 30.7809C11.474 30.5303 11.7967 30.3875 12.1351 30.3875L36.2428 30.3875C36.5939 30.3875 36.9274 30.5412 37.1554 30.8082L43.4241 38.1492C43.5904 38.3439 43.452 38.644 43.1959 38.644H4.78683C4.5265 38.644 4.38973 38.3352 4.5647 38.1424Z"
     fill="white"
     stroke="black"
     stroke-width="1.2"
     id="path2" />
  <path
     d="M43.7493 39.7373L44.0527 38.6144L42.7305 38.9544L43.7493 39.7373Z"
     fill="black"
     id="path3" />
  <path
     d="M4.23843 39.7782L3.93559 38.644L5.25781 38.984L4.23843 39.7782Z"
     fill="black"
     id="path4" />
  <path
     d="M11.5273 35.7374L36.4323 35.7374"
     stroke="black"
     stroke-width="0.96"
     stroke-linecap="round"
     id="path5" />
  <path
     d="M15.6914 33.1777L29.2044 33.1777"
     stroke="black"
     stroke-width="0.84"
     stroke-linecap="round"
     id="path6" />
  <mask
     id="path-7-inside-1_1725_2358"
     fill="white">
    <path
       fill-rule="evenodd"
       clip-rule="evenodd"
       d="M37.172 19.7817C36.9349 22.7529 35.6821 25.3997 33.7816 27.4085C32.5019 28.7929 29.5418 31.706 25.7735 34.2789C24.3093 35.2786 22.3601 35.1169 21.0762 33.8942C17.7626 30.7385 15.3362 27.4378 14.3314 25.9382C12.7349 23.6381 11.8938 20.7926 12.1339 17.7839C12.6856 10.8699 18.7378 5.71212 25.6518 6.26379C32.5659 6.81547 37.7237 12.8677 37.172 19.7817ZM24.4054 21.8481C26.6219 22.0249 28.562 20.3715 28.7389 18.155C28.9157 15.9386 27.2623 13.9984 25.0458 13.8215C22.8294 13.6447 20.8892 15.2981 20.7123 17.5146C20.5355 19.7311 22.1889 21.6712 24.4054 21.8481Z"
       id="path7" />
  </mask>
  <path
     fill-rule="evenodd"
     clip-rule="evenodd"
     d="m 37.172,19.7817 c -0.2371,2.9712 -1.4899,5.618 -3.3904,7.6268 -1.2797,1.3844 -4.2398,4.2975 -8.0081,6.8704 -1.4642,0.9997 -3.4134,0.838 -4.6973,-0.3847 -3.3136,-3.1557 -5.74,-6.4564 -6.7448,-7.956 -1.5965,-2.3001 -2.4376,-5.1456 -2.1975,-8.1543 0.5517,-6.914 6.6039,-12.07178 13.5179,-11.52011 6.9141,0.55168 12.0719,6.60391 11.5202,13.51791 z m -12.7666,2.0664 c 2.2165,0.1768 4.1566,-1.4766 4.3335,-3.6931 0.1768,-2.2164 -1.4766,-4.1566 -3.6931,-4.3335 -2.2164,-0.1768 -4.1566,1.4766 -4.3335,3.6931 -0.1768,2.2165 1.4766,4.1566 3.6931,4.3335 z"
     fill="#4be4b4"
     id="path8"
     style="display:inline;fill:url(#linearGradient12)" />
  <path
     d="m 33.7816,27.4085 -0.8718,-0.8247 -0.0094,0.0102 z m -8.0081,6.8704 -0.6766,-0.991 v 0 z m -4.6973,-0.3847 -0.8275,0.869 v 0 z m -6.7448,-7.956 0.9969,-0.668 -0.0055,-0.0082 -0.0056,-0.0081 z m 20.3219,2.295 c 2.0819,-2.2005 3.4552,-5.1021 3.7149,-8.356 l -2.3924,-0.1909 c -0.2145,2.6884 -1.3468,5.0804 -3.0659,6.8975 z m -8.2031,7.0367 c 3.8632,-2.6377 6.891,-5.6171 8.2126,-7.0468 L 32.9004,26.594 c -1.2377,1.3389 -4.1301,4.1858 -7.8035,6.6939 z m -6.2015,-0.5067 c 1.6922,1.6115 4.268,1.8269 6.2015,0.5067 l -1.3533,-1.982 c -0.995,0.6793 -2.3175,0.5712 -3.1931,-0.2627 z m -6.9142,-8.1571 c 1.0379,1.5491 3.5191,4.9239 6.9142,8.1571 l 1.6551,-1.738 C 18.6715,29.947 16.3,26.7204 15.3283,25.2702 Z m -2.3968,-8.9176 c -0.2629,3.2951 0.6591,6.4144 2.4079,8.9339 l 1.9716,-1.3685 C 13.873,23.1733 13.1129,20.6017 13.3301,17.8794 Z M 25.7473,5.0676 C 18.1726,4.4632 11.5421,10.1138 10.9377,17.6885 l 2.3924,0.1909 C 13.8291,11.6259 19.303,6.96103 25.5564,7.45999 Z M 38.3682,19.8772 C 38.9726,12.3025 33.322,5.67199 25.7473,5.0676 L 25.5564,7.45999 C 31.8098,7.95896 36.4747,13.4329 35.9758,19.6863 Z M 27.5427,18.0596 c -0.1242,1.5558 -1.486,2.7164 -3.0419,2.5923 l -0.1909,2.3924 c 2.8771,0.2295 5.3956,-1.9167 5.6252,-4.7938 z m -2.5923,-3.0419 c 1.5558,0.1242 2.7164,1.4861 2.5923,3.0419 l 2.3924,0.1909 c 0.2295,-2.8771 -1.9167,-5.3956 -4.7938,-5.6252 z M 21.9085,17.61 c 0.1242,-1.5558 1.4861,-2.7164 3.0419,-2.5923 l 0.1909,-2.3924 c -2.8771,-0.2295 -5.3956,1.9167 -5.6252,4.7938 z m 2.5923,3.0419 C 22.945,20.5277 21.7844,19.1659 21.9085,17.61 l -2.3924,-0.1909 c -0.2295,2.8772 1.9167,5.3956 4.7938,5.6252 z"
     fill="#000000"
     mask="url(#path-7-inside-1_1725_2358)"
     id="path9"
     style="display:inline" />
  <path
     d="M37.7216 31.6373L24.7298 34.7682L30.0425 29.9687L36.2488 29.9645L37.7216 31.6373Z"
     fill="black"
     id="path10" />
  <path
     d="M44.9484 12.0577L41.0684 15.5861L39.9372 10.5108L44.9484 12.0577Z"
     fill="#89EECE"
     stroke="#080B0E"
     stroke-width="0.9"
     stroke-linejoin="round"
     id="path11"
     style="fill:#ee465e;fill-opacity:1" />
  <circle
     cx="6.07279"
     cy="26.8967"
     r="1.30721"
     transform="rotate(75.7596 6.07279 26.8967)"
     fill="white"
     stroke="#080B0E"
     stroke-width="0.9"
     id="circle11" />
</svg>

<svg xmlns="http://www.w3.org/2000/svg" width="100%" height="100%" viewBox="0 0 48 48" fill="none" preserveAspectRatio="xMidYMid meet" aria-hidden="true" role="img">
<path d="M4.87719 39.2987L11.4405 32.0679C11.6679 31.8173 11.9906 31.6744 12.329 31.6744L36.0381 31.6745C36.3892 31.6745 36.7227 31.8282 36.9507 32.0952L43.1078 39.3056C43.2741 39.5003 43.1357 39.8004 42.8797 39.8004H5.09933C4.839 39.8004 4.70222 39.4915 4.87719 39.2987Z" fill="white" stroke="black" stroke-width="1.2"></path>
<path d="M4.5647 38.1424L11.2466 30.7809C11.474 30.5303 11.7967 30.3875 12.1351 30.3875L36.2428 30.3875C36.5939 30.3875 36.9274 30.5412 37.1554 30.8082L43.4241 38.1492C43.5904 38.3439 43.452 38.644 43.1959 38.644H4.78683C4.5265 38.644 4.38973 38.3352 4.5647 38.1424Z" fill="white" stroke="black" stroke-width="1.2"></path>
<path d="M43.7493 39.7373L44.0527 38.6144L42.7305 38.9544L43.7493 39.7373Z" fill="black"></path>
<path d="M4.23843 39.7782L3.93559 38.644L5.25781 38.984L4.23843 39.7782Z" fill="black"></path>
<path d="M11.5273 35.7374L36.4323 35.7374" stroke="black" stroke-width="0.96" stroke-linecap="round"></path>
<path d="M15.6914 33.1777L29.2044 33.1777" stroke="black" stroke-width="0.84" stroke-linecap="round"></path>
<mask id="path-7-inside-1_1725_2358" fill="white">
<path fill-rule="evenodd" clip-rule="evenodd" d="M37.172 19.7817C36.9349 22.7529 35.6821 25.3997 33.7816 27.4085C32.5019 28.7929 29.5418 31.706 25.7735 34.2789C24.3093 35.2786 22.3601 35.1169 21.0762 33.8942C17.7626 30.7385 15.3362 27.4378 14.3314 25.9382C12.7349 23.6381 11.8938 20.7926 12.1339 17.7839C12.6856 10.8699 18.7378 5.71212 25.6518 6.26379C32.5659 6.81547 37.7237 12.8677 37.172 19.7817ZM24.4054 21.8481C26.6219 22.0249 28.562 20.3715 28.7389 18.155C28.9157 15.9386 27.2623 13.9984 25.0458 13.8215C22.8294 13.6447 20.8892 15.2981 20.7123 17.5146C20.5355 19.7311 22.1889 21.6712 24.4054 21.8481Z"></path>
</mask>
<path fill-rule="evenodd" clip-rule="evenodd" d="M37.172 19.7817C36.9349 22.7529 35.6821 25.3997 33.7816 27.4085C32.5019 28.7929 29.5418 31.706 25.7735 34.2789C24.3093 35.2786 22.3601 35.1169 21.0762 33.8942C17.7626 30.7385 15.3362 27.4378 14.3314 25.9382C12.7349 23.6381 11.8938 20.7926 12.1339 17.7839C12.6856 10.8699 18.7378 5.71212 25.6518 6.26379C32.5659 6.81547 37.7237 12.8677 37.172 19.7817ZM24.4054 21.8481C26.6219 22.0249 28.562 20.3715 28.7389 18.155C28.9157 15.9386 27.2623 13.9984 25.0458 13.8215C22.8294 13.6447 20.8892 15.2981 20.7123 17.5146C20.5355 19.7311 22.1889 21.6712 24.4054 21.8481Z" fill="#4BE4B4"></path>
<path d="M33.7816 27.4085L32.9098 26.5838L32.9004 26.594L33.7816 27.4085ZM25.7735 34.2789L25.0969 33.2879L25.0969 33.2879L25.7735 34.2789ZM21.0762 33.8942L20.2487 34.7632L20.2487 34.7632L21.0762 33.8942ZM14.3314 25.9382L15.3283 25.2702L15.3228 25.262L15.3172 25.2539L14.3314 25.9382ZM34.6533 28.2332C36.7352 26.0327 38.1085 23.1311 38.3682 19.8772L35.9758 19.6863C35.7613 22.3747 34.629 24.7667 32.9099 26.5838L34.6533 28.2332ZM26.4502 35.2699C30.3134 32.6322 33.3412 29.6528 34.6628 28.2231L32.9004 26.594C31.6627 27.9329 28.7703 30.7798 25.0969 33.2879L26.4502 35.2699ZM20.2487 34.7632C21.9409 36.3747 24.5167 36.5901 26.4502 35.2699L25.0969 33.2879C24.1019 33.9672 22.7794 33.8591 21.9038 33.0252L20.2487 34.7632ZM13.3345 26.6061C14.3724 28.1552 16.8536 31.53 20.2487 34.7632L21.9038 33.0252C18.6715 29.947 16.3 26.7204 15.3283 25.2702L13.3345 26.6061ZM10.9377 17.6885C10.6748 20.9836 11.5968 24.1029 13.3456 26.6224L15.3172 25.2539C13.873 23.1733 13.1129 20.6017 13.3301 17.8794L10.9377 17.6885ZM25.7473 5.0676C18.1726 4.4632 11.5421 10.1138 10.9377 17.6885L13.3301 17.8794C13.8291 11.6259 19.303 6.96103 25.5564 7.45999L25.7473 5.0676ZM38.3682 19.8772C38.9726 12.3025 33.322 5.67199 25.7473 5.0676L25.5564 7.45999C31.8098 7.95896 36.4747 13.4329 35.9758 19.6863L38.3682 19.8772ZM27.5427 18.0596C27.4185 19.6154 26.0567 20.776 24.5008 20.6519L24.3099 23.0443C27.187 23.2738 29.7055 21.1276 29.9351 18.2505L27.5427 18.0596ZM24.9504 15.0177C26.5062 15.1419 27.6668 16.5038 27.5427 18.0596L29.9351 18.2505C30.1646 15.3734 28.0184 12.8549 25.1413 12.6253L24.9504 15.0177ZM21.9085 17.61C22.0327 16.0542 23.3946 14.8936 24.9504 15.0177L25.1413 12.6253C22.2642 12.3958 19.7457 14.542 19.5161 17.4191L21.9085 17.61ZM24.5008 20.6519C22.945 20.5277 21.7844 19.1659 21.9085 17.61L19.5161 17.4191C19.2866 20.2963 21.4328 22.8147 24.3099 23.0443L24.5008 20.6519Z" fill="black" mask="url(#path-7-inside-1_1725_2358)"></path>
<path d="M37.7216 31.6373L24.7298 34.7682L30.0425 29.9687L36.2488 29.9645L37.7216 31.6373Z" fill="black"></path>
<path d="M44.9484 12.0577L41.0684 15.5861L39.9372 10.5108L44.9484 12.0577Z" fill="#89EECE" stroke="#080B0E" stroke-width="0.9" stroke-linejoin="round"></path>
<rect x="35.2439" y="5.28596" width="1.41034" height="1.41034" transform="rotate(-11.7228 35.2439 5.28596)" fill="#080B0E" stroke="#080B0E" stroke-width="1.41034"></rect>
<circle cx="6.07279" cy="26.8967" r="1.30721" transform="rotate(75.7596 6.07279 26.8967)" fill="white" stroke="#080B0E" stroke-width="0.9"></circle>
</svg>
